usr/share/icons/biglinux-icons-material-dark/16/actions/folder-stash.svg

<svg version="1.1" viewBox="0 0 16 16" xmlns="http://www.w3.org/2000/svg">
 <defs>
  <style id="current-color-scheme" type="text/css">.ColorScheme-Text {
        color:#dedede;
      }</style>
 </defs>
 <path class="ColorScheme-Text" d="m12 9v1h-1v5h5v-5h-1v-1zm0 2h3v3h-3z" fill="currentColor"/>
 <path class="ColorScheme-Text" d="m2 2c-1.108 0-2 0.892-2 2v9c0 1.108 0.892 2 2 2h8v-1h-8c-0.554 0-1-0.446-1-1v-6h14l2e-5 1h1l-2e-5 -3c-7e-6 -1.108-0.892-2-2-2h-7.6289c-0.57985-0.0229-0.6047 0.076884-1.0391-0.35742-0.43381-0.43381-0.613-0.64213-1.332-0.64258h-2zm0 1h2c0.31116-1.7e-6 0.52033 1.414e-4 0.99805 0.4707 0.47877 0.47161 0.6388 0.5293 1 0.5293h8.002c0.554 0 1 0.446 1 1v1h-14v-2c0-0.554 0.446-1 1-1z" fill="currentColor"/>
</svg>

<svg xmlns="http://www.w3.org/2000/svg" viewBox="0 0 16 16">
<defs>
<style id="current-color-scheme" type="text/css">
.ColorScheme-Text{color:#dedede}
</style>
</defs>
<path fill="currentColor" d="M12 9v1h-1v5h5v-5h-1V9zm0 2h3v3h-3z" class="ColorScheme-Text"/>
<path fill="currentColor" d="M2 2C.892 2 0 2.892 0 4v9c0 1.108.892 2 2 2h8v-1H2c-.554 0-1-.446-1-1V7h14v1h1V5c0-1.108-.892-2-2-2H6.371c-.58-.023-.605.077-1.039-.357S4.719 2 4 2zm0 1h2c.311 0 .52 0 .998.47.479.472.639.53 1 .53H14c.554 0 1 .446 1 1v1H1V4c0-.554.446-1 1-1" class="ColorScheme-Text"/>
</svg>
